!!!OTL: ZEUCH FAHLE ZEUCH
!!!ARE: Europa, Mitteleuropa, Deutschland
!!!SCT: E1140
!!!YEM: Copyright 1995, estate of Helmut Schaffrath.
**kern
*ICvox
*Ivox
*M4/4
*k[]
*C:
=1
{2g
4e
4f#
=2
2g
2r}
=3
{2g
4e
4f#
=4
2g
2r}
=5
{4e
4f
4g
4f
=6
4e
4d
2c}
=7
{4e
4f
4g
4f
=8
4e
4d
2c}
=9
{2c
4d
4d
=10
2c
2r}
=11
{2e
4d
4d
=12
1c}
==
!!!AGN: Trink -, Zech - Lied
!!!ONB: ESAC (Essen Associative Code) Database: ERK3
!!!AMT: simple quadruple
!!!AIN: vox
!!!EED: Helmut Schaffrath
!!!EEV: 1.0
*-
